X:125
T: Dominic Rooney's
S: Mike/Mary Rafferty
Z: B.Black
R: jig
M: 6/8
L: 1/8
K: D
AFA AdB | AFA D3 | ABd g2 e | fdB BAF |
AFA AdB | AFA D2 f | g2 e fed | edB BAF :|
Adf a3 | abf a3 | Adf a2 f | gfe fdB |
Adf a3 | abf a3 | g2 e fed | edB BAF :|
